X: 20551
M: C|
L: 1/8
K: G
g2G2 G2D2 | EGFA GFED | CEB,D A,CG,B, | D2D2 D2 :|
|: z2 |\
|: D2 |\
|: Bc |\
d3c B2G2 | G2E2E2C2 | e3d c2A2 | A2G2 F2D2 |\
d3c BGBd | egfa g2-g2 | FGAF DFAF | G2G2 G2 :|


